dist/svg/email-business-o.svg

<svg width="16" height="16" viewBox="0 0 16 16" fill="rgb(34, 34, 34)" xmlns="http://www.w3.org/2000/svg"><title>email-business-o</title><path d="M15 3.99998H11V4.99998H15V6.94098L8 10.441L1 6.94098V4.99998H5V3.99998H1C0.448 4.00198 0.002 4.44798 0 4.99998V15C0.002 15.552 0.448 15.998 1 16H15C15.552 15.998 15.998 15.552 16 15V4.99998C15.998 4.44798 15.552 4.00198 15 3.99998ZM1 15V8.05898L8 11.559L15 8.05898V15H1ZM9.285 5.88598C9.285 5.88198 9.285 5.87698 9.285 5.87098C9.285 5.67598 9.18 5.50598 9.023 5.41498L9.021 5.41398C8.779 5.28198 8.498 5.18198 8.201 5.12798L8.184 5.12498L7.531 4.97898C7.034 4.89298 6.59 4.72898 6.189 4.49598L6.208 4.50598C5.834 4.22698 5.594 3.78498 5.594 3.28798C5.594 3.24698 5.596 3.20698 5.599 3.16698V3.17198C5.599 3.15998 5.599 3.14498 5.599 3.13098C5.599 2.60198 5.829 2.12598 6.194 1.79898L6.196 1.79798C6.549 1.49998 7 1.30898 7.495 1.27898H7.501V0.000976562H8.501V1.30298C8.918 1.37298 9.288 1.53598 9.601 1.77098L9.595 1.76598C10.032 2.10798 10.31 2.63498 10.31 3.22698C10.31 3.23998 10.31 3.25398 10.31 3.26698V3.26498H9.099C9.099 2.92198 8.903 2.62398 8.617 2.47698L8.612 2.47498C8.408 2.37698 8.168 2.31898 7.915 2.31898C7.896 2.31898 7.877 2.31898 7.859 2.31998H7.862C7.841 2.31898 7.816 2.31798 7.791 2.31798C7.523 2.31798 7.272 2.39298 7.058 2.52398L7.064 2.52098C6.884 2.63598 6.766 2.83398 6.766 3.06098C6.766 3.06798 6.766 3.07498 6.766 3.08298C6.766 3.08898 6.766 3.09398 6.766 3.10098C6.766 3.30798 6.884 3.48698 7.057 3.57398L7.06 3.57498C7.29 3.68198 7.558 3.77098 7.838 3.82598L7.861 3.82998L8.92 4.08498C9.317 4.16298 9.668 4.31898 9.971 4.53798L9.963 4.53298C10.295 4.81398 10.505 5.23098 10.505 5.69698C10.505 5.72998 10.504 5.76298 10.502 5.79498V5.79098C10.502 5.80098 10.502 5.81298 10.502 5.82498C10.502 6.37298 10.255 6.86298 9.865 7.18998L9.862 7.19198C9.491 7.49498 9.022 7.68898 8.508 7.72198H8.501V8.99998H7.501V7.71598C6.999 7.66698 6.548 7.48098 6.177 7.19498L6.183 7.19898C5.764 6.85998 5.499 6.34598 5.499 5.77098C5.499 5.74198 5.5 5.71298 5.501 5.68498V5.68898H6.704C6.724 5.92798 6.807 6.14398 6.937 6.32398L6.934 6.31998C7.173 6.55998 7.504 6.70798 7.869 6.70798C7.918 6.70798 7.966 6.70498 8.013 6.69998L8.007 6.70098C8.028 6.70198 8.052 6.70198 8.076 6.70198C8.315 6.70198 8.546 6.66498 8.762 6.59598L8.746 6.59998C9.058 6.51898 9.285 6.23998 9.285 5.90698C9.285 5.89898 9.285 5.89098 9.285 5.88398V5.88598Z" fill="rgb(34, 34, 34)" fill-opacity="1.00"/></svg>

<!-- Generated by Trend Micro Style Portal -->
<svg version="1.1" xmlns="http://www.w3.org/2000/svg" width="16" height="16" viewBox="0 0 16 16">
  <title>email-business-o</title>
  <path fill="rgb(34,34,34)" d="M15 4h-4v1h4v1.941l-7 3.5-7-3.5v-1.941h4v-1h-4c-0.552 0.002-0.998 0.448-1 1v10c0.002 0.552 0.448 0.998 1 1h14c0.552-0.002 0.998-0.448 1-1v-10c-0.002-0.552-0.448-0.998-1-1h-0zM1 15v-6.941l7 3.5 7-3.5v6.941zM9.285 5.886c0-0.004 0-0.009 0-0.015 0-0.195-0.105-0.365-0.262-0.456l-0.002-0.001c-0.242-0.132-0.523-0.232-0.82-0.286l-0.017-0.003-0.653-0.146c-0.497-0.086-0.941-0.25-1.342-0.483l0.019 0.010c-0.374-0.279-0.614-0.721-0.614-1.218 0-0.041 0.002-0.081 0.005-0.121l-0 0.005c-0-0.012-0-0.027-0-0.041 0-0.529 0.23-1.005 0.595-1.332l0.002-0.001c0.353-0.298 0.804-0.489 1.299-0.519l0.006-0v-1.278h1v1.302c0.417 0.070 0.787 0.233 1.1 0.468l-0.006-0.005c0.437 0.342 0.715 0.869 0.715 1.461 0 0.013-0 0.027-0 0.040l0-0.002h-1.211c0-0 0-0 0-0 0-0.343-0.196-0.641-0.482-0.788l-0.005-0.002c-0.204-0.098-0.444-0.156-0.697-0.156-0.019 0-0.038 0-0.056 0.001l0.003-0c-0.021-0.001-0.046-0.002-0.071-0.002-0.268 0-0.519 0.075-0.733 0.206l0.006-0.003c-0.18 0.115-0.298 0.313-0.298 0.54 0 0.007 0 0.014 0 0.022l-0-0.001c-0 0.006-0 0.012-0 0.019 0 0.207 0.118 0.386 0.291 0.473l0.003 0.001c0.23 0.107 0.498 0.196 0.778 0.251l0.023 0.004 1.059 0.255c0.397 0.078 0.748 0.234 1.051 0.453l-0.008-0.005c0.332 0.281 0.542 0.698 0.542 1.164 0 0.033-0.001 0.066-0.003 0.098l0-0.004c0 0.010 0 0.022 0 0.034 0 0.548-0.247 1.038-0.637 1.365l-0.003 0.002c-0.371 0.303-0.84 0.497-1.354 0.53l-0.007 0v1.278h-1v-1.284c-0.502-0.049-0.953-0.235-1.324-0.521l0.006 0.004c-0.419-0.339-0.684-0.853-0.684-1.428 0-0.029 0.001-0.058 0.002-0.086l-0 0.004h1.203c0.020 0.239 0.103 0.455 0.233 0.635l-0.003-0.004c0.239 0.24 0.57 0.388 0.935 0.388 0.049 0 0.097-0.003 0.144-0.008l-0.006 0.001c0.021 0.001 0.045 0.001 0.069 0.001 0.239 0 0.47-0.037 0.686-0.106l-0.016 0.004c0.312-0.081 0.539-0.36 0.539-0.693 0-0.008-0-0.016-0-0.023l0 0.001z"></path>
</svg>
